X:1
T:Title
%%score { ( 1 3 ) | ( 2 4 ) }
L:1/8
Q:1/4=100
M:4/4
K:C
V:1 treble nm="Grand Piano"
V:3 treble 
V:2 bass 
V:4 bass 
V:1
 [Ec]2 [CE][DF] [EG]3 [EG] | ABcd c2 [EG]2 | [^Fc]2 BA B d2 [EGc] | [DGB]2 [C^FA]2 [G,B,G]4 | %4
w: James~McGranahan * * * *||||
 B,BBd d3 G | .[CG]2 z2 [Ge]2 d2 | c3 c d c2 A | G2 .[DFB]2 [Ec]4 | CEEG G2 E[CEG] | %9
w: |||||
 [CFA]2 [FB]2 [Ec]2 [Ge]2 | [Gd]3 c [GB]2 A2 | G6 z2 | G2 Bd f2 dG | [Gc]2 d2 e2 [Af]d | z4 B4 | %15
w: ||||||
 [Ec]8 |] %16
w: |
V:2
 [C,G,]2 [C,G,]2 [C,C]3 [C,C] | [F,A,F][K:treble][G,B,G][A,CA][B,DB] [CE]2[K:bass] [C,C]2 | %2
 z4[K:treble] .D2 z2[K:bass] | D,2 D,2 G,,4 | z[K:treble] DG-[B,G] [G,B,G]3 [G,B,F] | %5
 z G,G,[CG] .[C,C]2[K:treble] .[G,B,F]2 | [A,CE]3 [A,CE] [F,A,F]3 [F,DF] | %7
 [G,DF]2[K:bass] z G, [C,G,]4 | C,E,E,G, G,2 E,C, | F,2 [D,G,]2 [C,G,]2 [C,C]2 | %10
 B,3 [A,^F] [D,D]2 [D,CD]2 | [G,B,D]6 z2 | [G,B,D]2 [G,DG][G,B,G] [G,B,G]2 [G,B,G][K:bass][F,B,] | %13
 [E,C]2[K:treble] [G,B,G]2 [CG]2[K:bass] C[A,F] | [G,E]4 [G,,G,]4 | [C,G,]8 |] %16
V:3
 x8 | x8 | z2 ^F2 z4 | x8 | G2 z2 z4 | E-[Ec][Ec]e z E, z ^G, | x8 | x8 | x8 | x8 | x8 | x8 | x8 | %13
 x8 | c4 D2 F2 | x8 |] %16
V:4
 x8 | x[K:treble] x5[K:bass] x2 | [D,A,]2 [D,D]2[K:treble] [G,G]- [G,B,G]2[K:bass] C, | x8 | %4
 G,2[K:treble] .D2 z4 | C,2 C,2 z4[K:treble] | x8 | z2[K:bass] G,,2 z4 | x8 | x8 | D,4 z4 | x8 | %12
 x7[K:bass] x | z4[K:treble] z2[K:bass] F,2 | x8 | x8 |] %16

